**kern	**silbe	**kern	**silbe
*ICvox	*	*ICvox	*
=1	=1	=1	=1
*G:	*	*G:	*
*M4/4	*	*M4/4	*
*clefG2	*	*clefG2	*
1r	.	4r	.
.	.	4g	Do-
.	.	4g	-lang
.	.	4g	do-
=2	=2	=2	=2
1r	.	4a	-lang
.	.	8a	do-
.	.	4a	-lang
.	.	8r	.
.	.	4r	.
=3	=3	=3	=3
1r	.	4r	.
.	.	4g	Do-
.	.	4g	-lang
.	.	4g	do-
=4	=4	=4	=4
4r	.	8a	-lang
.	.	8r	.
8r	.	4r	.
[8d	He's	.	.
8d]	_	4r	.
8d	so	.	.
8B	_	4r	.
8B	fine	.	.
=5	=5	=5	=5
1A	_	4r	.
.	.	4g	Do-
.	.	4g	-lang
.	.	4g	do-
=6	=6	=6	=6
4r	.	4a	-lang
8r	.	8a	do-
[8d	Wish	4a	-lang
8d]	_	.	.
8B	he	8r	.
8B	were	4r	.
8B	mine	.	.
=7	=7	=7	=7
1A	_	4r	.
.	.	4g	Do-
.	.	4g	-lang
.	.	4g	do-
=8	=8	=8	=8
4r	.	4a	-lang
8r	.	8a	do-
[8d	That	4a	-lang
8d]	_	.	.
8.d	hand-	8r	.
.	.	4r	.
8.B	-some	.	.
=9	=9	=9	=9
8A	boy	4r	.
8B	o-	.	.
8G	-ver	4g	Do-
8A	there	.	.
8B	_	4g	-lang
4.A	_	.	.
.	.	4g	do-
=10	=10	=10	=10
4r	.	4a	-lang
8r	.	8a	do-
[8d	One	4a	-lang
8d]	_	.	.
8d	with	8r	.
8A	the	4r	.
8A	wa-	.	.
=11	=11	=11	=11
4B	_	4r	.
8B	-vy	4g	Do-
8A	hair	.	.
8B	_	4g	-lang
4.A	_	.	.
.	.	4g	do-
=12	=12	=12	=12
8r	.	4a	-lang
8d	I	.	.
8d	don't	8a	do-
8e	know	4a	-lang
8g	how	.	.
8e	I'm	8r	.
8g	gon-	4r	.
8e	-na	.	.
=13	=13	=13	=13
8g	do	4r	.
2..g	it	.	.
.	.	4g	Do-
.	.	4g	-lang
.	.	4g	do-
=14	=14	=14	=14
8r	.	4g	-lang
8d	but	.	.
8e	I'm	8g	do-
[8a	gon-	4g	-lang
8a]	_	.	.
8g	-na	8r	.
8g	make	4r	.
8e	him	.	.
=15	=15	=15	=15
1g	mine	4r	.
.	.	4g	Do-
.	.	4g	-lang
.	.	4g	do-
=16	=16	=16	=16
8r	.	4g	-lang
8e	Be	.	.
8e	the	8g	do-
[8g	en-	4g	-lang
8g]	_	.	.
8e	-vy	8r	.
8g	of	4r	.
[8a	all	.	.
=17	=17	=17	=17
4a]	_	4r	.
16g	the	4g	Do-
8.e	_	.	.
2g	girls	4g	-lang
.	.	4g	do-
=18	=18	=18	=18
8r	.	4g	-lang
8d	It's	.	.
8e	just	8g	do-
8d	a	4g	-lang
8g	mat-	.	.
8e	-ter	8r	.
16g	of	4r	.
8.e	_	.	.
=19	=19	=19	=19
8r	.	4r	.
2..g	time	.	.
.	.	4g	Do-
.	.	4g	-lang
.	.	4g	do-
=20	=20	=20	=20
8r	.	8g	-lang
8d	He's	8r	.
8B	a	4r	.
[8d	soft	.	.
8d]	_	4r	.
8B	spo-	.	.
8B	-ken	4r	.
8B	guy	.	.
=21	=21	=21	=21
1A	_	4r	.
.	.	4g	Do-
.	.	4g	-lang
.	.	4g	do-
=22	=22	=22	=22
4r	.	4a	-lang
8r	.	8a	do-
[8d	Al-	4a	-lang
8d]	_	.	.
8d	-so	8r	.
8B	_	4r	.
[8A	seems	.	.
=23	=23	=23	=23
8A]	_	4r	.
8B	kin-	.	.
8G	-da	4g	Do-
8A	shy	.	.
8B	_	4g	-lang
4.A	_	.	.
.	.	4g	do-
=24	=24	=24	=24
4r	.	4a	-lang
8r	.	8a	do-
[8d	Makes	4a	-lang
8d]	_	.	.
8d	me	8r	.
8B	_	4r	.
[8A	won-	.	.
=25	=25	=25	=25
8A]	_	4r	.
8B	-der	.	.
8G	if	4g	Do-
8A	I	.	.
8B	_	4g	-lang
4.A	_	.	.
.	.	4g	do-
=26	=26	=26	=26
4r	.	4a	-lang
8A	should	8a	do-
[8d	e-	4a	-lang
8d]	_	.	.
8d	-ven	8r	.
8B	_	4r	.
[8A	give	.	.
=27	=27	=27	=27
8A]	_	4r	.
8B	him	.	.
8G	a	4g	Do-
8A	try	.	.
8B	_	4g	-lang
4.A	_	.	.
.	.	4g	do-
=28	=28	=28	=28
8r	.	4a	-lang
8d	But	.	.
8e	then	8a	do-
16d	I	4a	-lang
8g	know	.	.
8e	he	.	.
.	.	8r	.
16g	can't	.	.
8e	_	4r	.
[8g	shy	.	.
=29	=29	=29	=29
1g]	_	4r	.
.	.	4g	Do-
.	.	4g	-lang
.	.	4g	do-
=30	=30	=30	=30
8r	.	4g	-lang
8d	He	.	.
8e	can't	8g	do-
8a	shy	4g	-lang
8g	_	.	.
8g	a-	8r	.
8g	-way	4r	.
8e	for-	.	.
=31	=31	=31	=31
8g	-e-	4r	.
2..g	-ver	.	.
.	.	4g	Do-
.	.	4g	-lang
.	.	4g	do-
=32	=32	=32	=32
8r	.	4g	-lang
8d	and	.	.
8e	I'm	8g	do-
[8g	gon-	4g	-lang
8g]	_	.	.
8e	-na	8r	.
8g	make	4r	.
8e	him	.	.
=33	=33	=33	=33
1g	mine	4r	.
.	.	4g	Do-
.	.	4g	-lang
.	.	4g	do-
=34	=34	=34	=34
8r	.	4g	-lang
8d	If	.	.
8e	it	8g	do-
8g	takes	4g	-lang
4a	_	.	.
.	.	8r	.
8g	me	4r	.
8e	for-	.	.
=35	=35	=35	=35
8g	-e-	4r	.
2..g	-ver	.	.
.	.	4g	Do-
.	.	4g	-lang
.	.	4g	do-
=36	=36	=36	=36
1r	.	8g	-lang
.	.	8r	.
.	.	4r	.
.	.	2r	.
=37	=37	=37	=37
4e	He's	1r	.
8g	so	.	.
8e	_	.	.
2g	fine	.	.
=38	=38	=38	=38
2r	.	4.g	Oh
.	.	4.g	yeah
4r	.	.	.
8r	.	4r	.
[8a	Got-	.	.
=39	=39	=39	=39
8a]	_	1r	.
8g	-ta	.	.
8g	be	.	.
8e	_	.	.
2g	mine	.	.
=40	=40	=40	=40
2r	.	4.g	Oh
.	.	4.g	yeah
4.r	.	.	.
.	.	4r	.
[8e	Soon-	.	.
=41	=41	=41	=41
8e]	_	1r	.
8d	-er	.	.
4e	or	.	.
8e	lat-	.	.
4.d	-er	.	.
=42	=42	=42	=42
2r	.	4.g	Oh
.	.	4.g	yeah
4.r	.	.	.
.	.	4r	.
8d	I	.	.
=43	=43	=43	=43
8e	hope	1r	.
8d	it's	.	.
8e	not	.	.
8d	_	.	.
8e	lat-	.	.
4.d	-er	.	.
=44	=44	=44	=44
2r	.	4.g	Oh
.	.	4.g	yeah
4.r	.	.	.
.	.	4r	.
8d	We've	.	.
=45	=45	=45	=45
8e	got-	1r	.
8g	-ta	.	.
8g	get	.	.
8e	to-	.	.
8g	-ge-	.	.
4.g	-ther	.	.
=46	=46	=46	=46
2r	.	4.g	Oh
.	.	4.g	yeah
4.r	.	.	.
.	.	4r	.
8d	The	.	.
=47	=47	=47	=47
8e	soo-	1r	.
8e	-ner	.	.
8g	the	.	.
8e	_	.	.
8g	be-	.	.
4.g	-tter	.	.
=48	=48	=48	=48
2r	.	4.g	Oh
.	.	4.g	yeah
4.r	.	.	.
.	.	4r	.
8g	I	.	.
=49	=49	=49	=49
4a	just	1r	.
8a	can't	.	.
8g	_	.	.
4a	wait	.	.
8r	.	.	.
8g	I	.	.
=50	=50	=50	=50
8a	just	1r	.
8a	can't	.	.
8g	_	.	.
4.a	wait	.	.
8r	.	.	.
8d	to	.	.
=51	=51	=51	=51
8f	be	1r	.
8f#	_	.	.
4e	held	.	.
8d	in	.	.
4e	his	.	.
[8d	arms	.	.
=52	=52	=52	=52
8d]	_	1r	.
8r	.	.	.
8r	.	.	.
[8d	I	.	.
8d]	_	.	.
8B	were	.	.
8B	a	.	.
8B	queen	.	.
=53	=53	=53	=53
1A	_	4r	.
.	.	4g	Do-
.	.	4g	-lang
.	.	4g	do-
=54	=54	=54	=54
8r	.	4a	-lang
8d	and	.	.
8B	he	8a	do-
[8d	asked	4a	-lang
8d]	_	.	.
8d	me	8r	.
8A	to	4r	.
8A	leave	.	.
=55	=55	=55	=55
4B	_	4r	.
8G	my	4g	Do-
8A	throne	.	.
8B	_	4g	-lang
4.A	_	.	.
.	.	4g	do-
=56	=56	=56	=56
8r	.	4a	-lang
4d	I'd	.	.
.	.	8a	do-
8B	do	4a	-lang
8d	a-	.	.
8d	-ny-	8r	.
8B	_	4r	.
[8A	-thing	.	.
=57	=57	=57	=57
8A]	_	4r	.
8B	that	.	.
8G	he	4g	Do-
8A	asked	.	.
8B	_	4g	-lang
4.A	_	.	.
.	.	4g	do-
=58	=58	=58	=58
8r	.	4a	-lang
8d	A-	.	.
8B	-ny-	8a	do-
[8d	-thing	4a	-lang
8d]	_	.	.
8d	to	8r	.
8B	_	4r	.
[8A	make	.	.
=59	=59	=59	=59
8A]	_	4r	.
8B	him	.	.
8G	my	4g	Do-
8A	own	.	.
8B	_	4g	-lang
4.A	_	.	.
.	.	4g	do-
=60	=60	=60	=60
4r	.	4a	-lang
8d	Lord	8a	do-
[8e	he's	4a	-lang
8e]	_	.	.
8g	so	8r	.
8e	_	4r	.
[8g	fine	.	.
=61	=61	=61	=61
4g]	_	4r	.
4r	.	4a	So
4r	.	2g	fine
8g	So	.	.
[8e	fine	.	.
=62	=62	=62	=62
4e]	_	4r	.
4r	.	8a	So
.	.	8g	fine
4r	.	2r	.
8e	So	.	.
[8g	fine	.	.
=63	=63	=63	=63
4g]	_	4r	.
4r	.	4a	So
4r	.	2g	fine
8g	So	.	.
[8e	fine	.	.
=64	=64	=64	=64
4e]	_	4r	.
4r	.	8a	So
.	.	8g	fine
4r	.	2r	.
8e	So	.	.
[8g	fine	.	.
=65	=65	=65	=65
4g]	_	4r	.
4r	.	4a	So
4r	.	2g	fine
8g	Oh	.	.
[8e	yeah	.	.
=66	=66	=66	=66
4e]	_	4r	.
4r	.	8a	So
.	.	8g	fine
4r	.	2r	.
8e	So	.	.
[8g	fine	.	.
=67	=67	=67	=67
4g]	_	1r	.
4r	.	.	.
2r	.	.	.
=68	=68	=68	=68
1r	.	1r	.
*-	*-	*-	*-
!!!ENC: Nathaniel Condit-Schultz